less/source/img/features-icon-4.svg

<svg width="52" height="56" viewBox="0 0 52 56" fill="none" xmlns="http://www.w3.org/2000/svg">
<path fill-rule="evenodd" clip-rule="evenodd" d="M41.7068 22.1225C42.4764 15.5574 43.2041 9.34979 48.9997 4C22.5072 3.99988 14.8468 12.128 10.9998 17.9999C2.45825 31.0373 10.0851 43.6704 11.7106 46.0864C10.7615 47.9699 9.8453 49.8228 8.96853 51.596C8.28756 52.9732 7.63037 54.3023 7 55.5603L7.88103 55.9999C8.51647 54.7318 9.17882 53.3919 9.86491 52.0041C10.713 50.2884 11.5975 48.4993 12.5122 46.6817C15.1065 47.5486 26.9646 50.8651 34.5 41.9999C40.1568 35.3449 40.9519 28.5617 41.7068 22.1225Z" fill="#F0EBFF"/>
<path fill-rule="evenodd" clip-rule="evenodd" d="M8.23221 41.055C12.1899 33.2582 16.686 25.0948 21.2668 19.9999L22 20.6562C17.4314 25.7376 12.9304 33.9532 8.96782 41.779C9.34578 41.9019 9.88834 42.0652 10.5614 42.2326C11.9567 42.5795 13.8987 42.9402 16.0898 43.0003C20.4744 43.1204 25.753 42.0406 29.7381 37.3522C35.1982 30.9285 35.9631 24.4063 36.7206 17.9463L36.7357 17.8172C37.4173 12.0063 38.12 6.18297 42.6108 1.02289C30.8214 1.2525 23.1299 3.18456 17.9438 5.69784C12.4434 8.36348 9.69156 11.7161 7.83626 14.5479C3.2831 21.4976 3.51823 28.3097 4.90266 33.4262C5.59642 35.9902 6.57807 38.1203 7.38638 39.6085C7.70612 40.1972 7.99777 40.6837 8.23221 41.055ZM7.7106 42.0864C6.08506 39.6704 -1.54175 27.0373 6.9998 13.9999C10.7758 8.23634 18.2259 0.299055 43.5524 0.00822987C44.0285 0.00276494 44.5109 -2.58931e-06 44.9997 1.81779e-09C44.6406 0.331444 44.301 0.666183 43.9796 1.0041C39.1138 6.12034 38.4287 11.9641 37.7068 18.1225C36.952 24.5617 36.1568 31.3449 30.5 37.9999C22.9646 46.8651 11.1065 43.5486 8.51217 42.6817C7.59746 44.4993 6.71305 46.2884 5.86491 48.0041C5.17882 49.3919 4.51647 50.7318 3.88103 51.9999L3 51.5603C3.63037 50.3023 4.28756 48.9732 4.96853 47.596C5.8453 45.8228 6.76149 43.9699 7.7106 42.0864Z" fill="#7859CF"/>
</svg>

<svg width="52" height="56" viewBox="0 0 52 56" fill="none" xmlns="http://www.w3.org/2000/svg">
  <path fill-rule="evenodd" clip-rule="evenodd" d="M41.7 22.12C42.49 15.56 43.2 9.35 49 4c-26.5 0-34.15 8.13-38 14-8.54 13.04-.91 25.67.71 28.09A808.64 808.64 0 0 0 7 55.56l.88.44a825.82 825.82 0 0 1 4.63-9.32c2.6.87 14.45 4.19 21.99-4.68 5.66-6.66 6.45-13.44 7.2-19.88Z" fill="#F0EBFF"/>
  <path fill-rule="evenodd" clip-rule="evenodd" d="M8.23 41.05C12.2 33.26 16.7 25.1 21.27 20l.73.66c-4.57 5.08-9.07 13.3-13.03 21.12A26.2 26.2 0 0 0 16.09 43c4.38.12 9.66-.96 13.65-5.65 5.46-6.42 6.22-12.94 6.98-19.4l.02-.13c.68-5.81 1.38-11.64 5.87-16.8-11.79.23-19.48 2.16-24.67 4.68a23.8 23.8 0 0 0-10.1 8.85A22.6 22.6 0 0 0 4.9 33.43a28.93 28.93 0 0 0 3.33 7.63Zm-.52 1.04C6.1 39.67-1.54 27.04 7 14 10.78 8.24 18.23.3 43.55 0H45a22 22 0 0 0-1.02 1c-4.87 5.12-5.55 10.96-6.27 17.12-.76 6.44-1.55 13.22-7.21 19.88-7.54 8.87-19.4 5.55-21.99 4.68L5.86 48c-.68 1.4-1.34 2.73-1.98 4L3 51.56l1.97-3.96 2.74-5.51Z" fill="#7859CF"/>
</svg>
